X: 40910
T: Trip It Upstairs
R: jig
M: 6/8
K: Edorian
G2A B2G|A2G FGA|B2E EDE|B2E EDE|
G2AB2c|d2A BAG|F2D DCD|F2D DCD:|
|:d2d dAF|DFA dAF|G2E EDE|G2E EDE|
dcd edc|dcB ABG|F2D DCD|1 F2D DFA:|2 F2D DCD||
|:g2g gag|f2f fgf|e2e ega|bgee2f|
gfg agf|ed=c ABG|F2D DCD|F2D DCD:|

